svgs/foxydroid.svg

<svg xmlns="http://www.w3.org/2000/svg" viewBox="0 0 192 192"><path d="m16.584 16.5 39.708 22.905L96 62.352 56.292 85.257l-39.708 22.947V62.352Zm158.832 91.704-39.708-22.947L96 62.352l39.708-22.947L175.416 16.5v45.852Z" fill="none" stroke="#000" stroke-width="12" stroke-linecap="round" stroke-linejoin="round"/><path d="M175.416 108.204 96 175.5V62.352l39.708 22.905Zm-158.832 0 39.708-22.947L96 62.352V175.5Z" fill="none" stroke="#000" stroke-width="12" stroke-linecap="round" stroke-linejoin="round"/></svg>

<svg
    xmlns="http://www.w3.org/2000/svg"
    viewBox="0 0 192 192"
    id="vector">
    <path
        id="path"
        d="M 16.584 16.5 L 56.292 39.405 L 96 62.352 L 56.292 85.257 L 16.584 108.204 L 16.584 62.352 Z M 175.416 108.204 L 135.708 85.257 L 96 62.352 L 135.708 39.405 L 175.416 16.5 L 175.416 62.352 Z"
        fill="none"
        stroke="#000000"
        stroke-width="12"
        stroke-linecap="round"
        stroke-linejoin="round"/>
    <path
        id="path_1"
        d="M 175.416 108.204 L 96 175.5 L 96 62.352 L 135.708 85.257 Z M 16.584 108.204 L 56.292 85.257 L 96 62.352 L 96 175.5 Z"
        fill="none"
        stroke="#000000"
        stroke-width="12"
        stroke-linecap="round"
        stroke-linejoin="round"/>
</svg>
